assets/images/afrikons/rolling-stick.svg

<svg viewBox="0 0 50 50" xmlns="http://www.w3.org/2000/svg"><path d="m0 0h50v50h-50z" fill="none"/><path d="m49.48.52a1.78 1.78 0 0 0 -2.48 0l-.21.21a3 3 0 0 0 -2.51.83l-3.5 3.44a4.73 4.73 0 0 0 -3.87 1.36l-30.52 30.55a4.73 4.73 0 0 0 -1.39 3.87l-3.44 3.47a3 3 0 0 0 -.83 2.51l-.21.24a1.78 1.78 0 0 0 0 2.51 1.76 1.76 0 0 0 1.26.49 1.74 1.74 0 0 0 1.22-.52l.21-.21a3 3 0 0 0 .42 0 3 3 0 0 0 2.09-.87l3.5-3.4a4.41 4.41 0 0 0 .52 0 4.72 4.72 0 0 0 3.35-1.39l30.52-30.52a4.73 4.73 0 0 0 1.39-3.87l3.47-3.47a3 3 0 0 0 .83-2.51l.18-.24a1.78 1.78 0 0 0 0-2.48z" fill="#0a0a0a"/></svg>

<svg xmlns="http://www.w3.org/2000/svg" viewBox="0 0 50 50"><defs><style>.cls-1{fill:none;}.cls-2{fill:#0a0a0a;}</style></defs><title>rolling-stick</title><g id="Layer_2" data-name="Layer 2"><g id="Layer_1-2" data-name="Layer 1"><rect class="cls-1" width="50" height="50"/><path class="cls-2" d="M49.48.52A1.78,1.78,0,0,0,47,.52l-.21.21a3,3,0,0,0-2.51.83L40.78,5a4.73,4.73,0,0,0-3.87,1.36L6.39,36.91A4.73,4.73,0,0,0,5,40.78L1.56,44.25a3,3,0,0,0-.83,2.51L.52,47a1.78,1.78,0,0,0,0,2.51A1.76,1.76,0,0,0,1.78,50,1.74,1.74,0,0,0,3,49.48l.21-.21a3,3,0,0,0,.42,0,3,3,0,0,0,2.09-.87L9.22,45a4.41,4.41,0,0,0,.52,0,4.72,4.72,0,0,0,3.35-1.39L43.61,13.09A4.73,4.73,0,0,0,45,9.22l3.47-3.47a3,3,0,0,0,.83-2.51L49.48,3A1.78,1.78,0,0,0,49.48.52Z"/></g></g></svg>
